Assets/Icons/interaction/clip.svg

<svg enable-background="new 0 0 60 60" viewBox="0 0 60 60" xmlns="http://www.w3.org/2000/svg"><path d="m56.29 19.57c-.2-.2-.51-.2-.71 0l-33.71 33.72c-.59.58-5.99 5.53-12.36-.85-6.37-6.37-1.43-11.77-.85-12.36l34.07-34.08c.01-.01 1.07-1.04 2.61-1.55 1.99-.66 3.78-.15 5.49 1.55 3.9 3.9.41 7.69 0 8.1l-30.67 30.67s-.44.4-1.01.6c-.48.16-1.14.24-1.98-.6-1.32-1.32-.43-2.54 0-2.99l21.23-21.23c.98-.98.98-2.56 0-3.54-.2-.2-.51-.2-.71 0l-22.64 22.65c-.09.09-.9.92-1.32 2.18-.6 1.8-.13 3.6 1.32 5.05s3.24 1.92 5.05 1.32c1.26-.42 2.09-1.23 2.18-1.32l30.67-30.67c.06-.06 1.54-1.55 2.28-3.78.72-2.15.9-5.38-2.28-8.56s-6.41-3-8.56-2.28c-2.23.74-3.72 2.22-3.78 2.28l-34.08 34.08c-.08.08-1.99 2.02-2.83 5.02-.79 2.81-.79 7.11 3.68 11.58 3.15 3.15 6.21 4.08 8.73 4.08 1.06 0 2.02-.16 2.85-.4 3.01-.84 4.94-2.75 5.02-2.83l32.31-32.31c.98-.97.98-2.55 0-3.53z"/></svg>

<?xml version="1.0" encoding="utf-8"?>
<!-- Generator: Adobe Illustrator 21.1.0, SVG Export Plug-In . SVG Version: 6.00 Build 0)  -->
<svg version="1.1" id="eps" xmlns="http://www.w3.org/2000/svg" xmlns:xlink="http://www.w3.org/1999/xlink" x="0px" y="0px"
	 viewBox="0 0 60 60" style="enable-background:new 0 0 60 60;" xml:space="preserve">
<path d="M56.29,19.57c-0.2-0.2-0.51-0.2-0.71,0L21.87,53.29c-0.59,0.58-5.99,5.53-12.36-0.85c-6.37-6.37-1.43-11.77-0.85-12.36
	L42.73,6c0.01-0.01,1.07-1.04,2.61-1.55C47.33,3.79,49.12,4.3,50.83,6c3.9,3.9,0.41,7.69,0,8.1L20.16,44.77c0,0-0.44,0.4-1.01,0.6
	c-0.48,0.16-1.14,0.24-1.98-0.6c-1.32-1.32-0.43-2.54,0-2.99L38.4,20.55c0.98-0.98,0.98-2.56,0-3.54l0,0c-0.2-0.2-0.51-0.2-0.71,0
	L15.05,39.66c-0.09,0.09-0.9,0.92-1.32,2.18c-0.6,1.8-0.13,3.6,1.32,5.05s3.24,1.92,5.05,1.32c1.26-0.42,2.09-1.23,2.18-1.32
	l30.67-30.67c0.06-0.06,1.54-1.55,2.28-3.78c0.72-2.15,0.9-5.38-2.28-8.56s-6.41-3-8.56-2.28c-2.23,0.74-3.72,2.22-3.78,2.28
	L6.53,37.96c-0.08,0.08-1.99,2.02-2.83,5.02c-0.79,2.81-0.79,7.11,3.68,11.58c3.15,3.15,6.21,4.08,8.73,4.08
	c1.06,0,2.02-0.16,2.85-0.4c3.01-0.84,4.94-2.75,5.02-2.83L56.29,23.1C57.27,22.13,57.27,20.55,56.29,19.57z"/>
</svg>
